X: 2
T: Blue Bonnets over the Border
R: jig
M: 6/8
L: 1/8
Z: 2010 John Chambers <jc:trillian.mit.edu>
B: Anonymous manuscript tune book (1800-1840) p.27
F: http://www.asaplive.com/archive/browse_by_collection.asp
N: The asaplive.com web site is complex, and links to its files don't usually work.
K: C
c3 c3 | ced cAG | cAA A2A | agf edc |\
c>dc c2c | ced cAG | fga ged | cde {e}d2c ||
ceg gec | agf edc | ceg abc' | c>dc cAG |\
ceg gec | age edc | fga gc'c | cde {e}d2c |]


%%sep 5 1 500

